X: 32976
T: Pretty Girl Milking Her Cow, The
R: waltz
M: 3/4
K: Adorian
A2|c2 e2 c2|B2 d2 BA|G2 HA2 AB|c2 d2 e2|e2 f2 g2|Ha4 gf|
g2 f2 e2|d2 e2 BA|G2 HA2 ed|c2 B2 A2|E2 A2 G2|HA4|

